X: 6019
T: Caoineadh Eoghain Rua
R: polka
M: 2/4
K: Eminor
E2 F/G/A|B2 c z/A/|B3 z/G/|AB zG|E4|
E2 F/G/A|B2 cz/A/|B3 z/G/|E4|e3 f/e/|
dz ~BA|G4|e3 f/e/|dz ~BA|F3 G/4F/4D/|
E4-|E4-|E4:|E(F/G/ A/B/c/d/|e/f3/2) g2|
g4|ge f2|f4|gf ed|BA Bz|
B4|^cd ef|zF F2-|F2 E2|E4||

